svg/format_text_rotation_angle_down.svg

<svg xmlns="http://www.w3.org/2000/svg" viewBox="0 0 24 24"><path d="M14.25 21h-4.22l1.41-1.41-8.86-8.86 1.45-1.4 8.81 8.86 1.41-1.41M12.61 8l2.62 2.64 2.2-4.87m1.98-.85-4.46 11.11-1.45-1.45.89-2.2-3.51-3.57-2.2.94-1.46-1.5 11.11-4.41Z"/></svg>

<?xml version="1.0" encoding="UTF-8"?><!DOCTYPE svg PUBLIC "-//W3C//DTD SVG 1.1//EN" "http://www.w3.org/Graphics/SVG/1.1/DTD/svg11.dtd"><svg xmlns="http://www.w3.org/2000/svg" xmlns:xlink="http://www.w3.org/1999/xlink" version="1.1" id="mdi-format-text-rotation-angle-down" width="24" height="24" viewBox="0 0 24 24"><path d="M14.25 21H10.03L11.44 19.59L2.58 10.73L4.03 9.33L12.84 18.19L14.25 16.78M12.61 8L15.23 10.64L17.43 5.77M19.41 4.92L14.95 16.03L13.5 14.58L14.39 12.38L10.88 8.81L8.68 9.75L7.22 8.25L18.33 3.84Z" /></svg>
